X:1
T:Makin' Whoopee!
T:Makin' Whoopee!
T:Walter  Donaldson
T:Gus Kahn
C:Walter Donaldson
Z:All Rights Reserved
L:1/8
M:4/4
K:F
V:1 treble 
%%MIDI program 0
V:1
 C DC ||S"Fmaj7" A4-"F#dim7" ACDC |"Gm7" B4-"C7" BCDC |"Cm7" c4-"F7" cFGF |"Bbmaj7" c4-"Eb7" cBcB | %5
w: An- oth- er|bride, * an- oth- er|June, * an- oth- er|sun\-ny * * hon- ey-|moon * an- oth- er|
w: |shoes, * a lot of|rice, * the groom is|ner- * * he answers|twice, * It's real- ly|
"Fmaj7" A2 A2-"Dm7" ACDC |"Db7" _A2 A2-"C7" A^FG^G |1"F6" =A2"Dm7" =F6- |"Gm7" F4"C7" z C DC :|2 %9
w: sea- son * an- oth- er|rea- son * for mak- in'|whoop ee!|* A lot of|
w: kill- ing * that he's so|will- ing * to mak- in'|~ *||
"F6" A2 F6- | F4 z4 ||"Am7b5" c _e2 c"D7b9" e2 c2 |"Gm7" B2 B6 |"Bbm7" B _d2"Eb7" B d2 B2 | %14
w: whoop- ee!||Pic- ture a lit- tle|love nest|down where the ros- es|
w: |||||
"Fmaj7" A8 |"Am7b5" c _e2 c"D7b9" e2 c2 |"Gm" B2 B6 |"Bbm7" B _d2 B"Eb7" d2 B2 | %18
w: cling,|Pic- ture a lit- tle|love nest|think what a year can|
w: ||||
"Am7""D7b9" A4-"Gm7" AC"C7"DC ||"Fmaj7" A4-"F#dim7" ACDC |"Gm7" B4-"C7" BCDC |"Cm7" c4-"F7" cFGF | %22
w: bring, * He's wash- ing-||||
w: |dish- es and ba- by|clothes, * he's so am-|bi\-tious * he ev- en|
"Bbmaj7" c4-"Eb7" cBcB |"Fmaj7" A2 A2-"Dm7" ACDC |"Db7" _A2 A2-"C7" A^FG^G | %25
w: |||
w: sews, * but don't for-|get folks * that's what you|get folks * for mak- in'|
"F6" =A2"^(""Dm7" =F6- |"Gm7" F4"C7""^)" z4 |] %27
w: ||
w: whoop- ee!|~~|

